!!!OTL: VON DER ALPEN STEILEN HOEHEN
!!!ARE: Europa, Mitteleuropa, Deutschland
!!!SCT: B0385
!!!YEM: Copyright 1995, estate of Helmut Schaffrath.
**kern
*ICvox
*Ivox
*M3/4
*k[f#c#g#]
*A:
{8.cc#
16dd
=1
4cc#
4b
8.b
16cc#
=2
4b
4a}
{8.a
16b
=3
4a
8g#
8e
8f#
8g#
=4
4b
4a}
{8.cc#
16dd
=5
4cc#
4b
8.b
16cc#
=6
4b
4a}
{8.a
16b
=7
4a
8g#
8e
8f#
8g#
=8
4b
4a}
{8.cc#
16cc#
=9
4.b
8b
8cc#
8dd#
=10
4ff#
4ee}
{8.b
16b
=11
4.a
8b
8cc#
8dd#
=12
4ee
4r}
{8ee
8ff#
=13
8.ee
16dd
4b
8dd
8ee
=14
8.dd
16cc#
4a}
{8cc#
8dd
=15
4cc#
8b
8e
8f#
8g#
=16
4b
8a
8r}
{8ee
8ff#
=17
8.ee
16dd
4b
8dd
8ee
=18
8.dd
16cc#
4a}
{8cc#
8dd
=19
4cc#
8b
8e
8f#
8g#
=20
4a
4r}
==
!!!AGN: Liebes - Lied, Liebes - Lust
!!!ONB: ESAC (Essen Associative Code) Database: BOEHME
!!!AMT: simple triple
!!!AIN: vox
!!!EED: Helmut Schaffrath
!!!EEV: 1.0
*-
